X:1
T:Proshchay
L:1/8
M:2/4
I:linebreak $
K:G
V:1 treble 
V:1
 z3 d |"G" d2"C" e2 |"D7" dA cB |"G" A G3- | G2 z g |"D7" f2 AB | cB/c/ ed |"G" B4 |: z g g=f | %9
"C" e3 g | ag fe |"G" gd Bc |$ [dd]=c/d/ ed |"D7" f A2 B | cd ef |"G" g4 :| %16
